X:1
T:Ach Wir, 11.11.11.11
T:Ach Wir, 11.11.11.11
T:16th Century German
T:Public Domain Courtesy of the Cyber Hymnal™
C:16th Century German
Z:Public Domain
Z:Courtesy of the Cyber Hymnal™
%%score ( 1 2 ) 3
L:1/8
Q:1/4=112
M:4/4
K:G
V:1 treble 
V:2 treble 
V:3 bass 
V:1
 [FA]2 [FA]2 [FA]2 [FA]2 | [GB]4 [EA]4 | [DG]2 [DF]2 [DF]2 [^CE]2 | D8 | [DA]2 [DA]2 [DA]2 [EA]2 | %5
 [DB]4 [B,G]4 | [EB]2 [DB]2 [Ec]2 [EB]2 | [^CA]8 | [DA]2 [DA]2 [EA]2 [FA]2 | [Dd]4 [DA]4 | %10
 [DB]2 [EB]2 [EA]2 [DA]2 | [B,G]8 | [DA]2 [^CA]2 [CA]2 [CA]2 | [^CA]4 [DF]4 | %14
 [DG]2 [DF]2 [DF]2 [^CE]2 | D8 |] %16
V:2
 x8 | x8 | x8 | D8 | x8 | x8 | x8 | x8 | x8 | x8 | x8 | x8 | x8 | x8 | x8 | D8 |] %16
V:3
 D,2 D,2 D,2 D,2 | [G,,D]4 [A,,C]4 | [B,,B,]2 [D,A,]2 [A,,A,]2 [A,,A,]2 | [D,F,]8 | %4
 [D,F,]2 [D,F,]2 [D,F,]2 [C,E,]2 | [B,,F,]4 [E,G,]4 | [E,G,]2 [G,B,]2 [C,A,]2 [E,^G,]2 | [A,,A,]8 | %8
 [D,F,]2 [D,F,]2 [^C,A,]2 [D,A,]2 | [G,,B,]4 [D,F,]4 | [B,,G,]2 [E,G,]2 [C,G,]2 [D,F,]2 | %11
 [G,,G,]8 | [D,F,]2 [A,,E,]2 [A,,E,]2 [A,,E,]2 | [A,,A,]4 [D,A,]4 | %14
 [B,,B,]2 [D,A,]2 [A,,A,]2 [A,,A,]2 | [D,F,]8 |] %16

